X: 7395
T: Clocktower, The
R: hornpipe
M: 4/4
K: Dmajor
d>FF>^E F2 (3ABc|d>F (3FFF E2 (3ABc|d>cd>e f>gf>e|d>B (3cBA B2 (3cBA|
G>ED>E G>AB>G|A>GE>G (3ABc B>A|(3Bcd e>f g>fg>e|d>B (3cBA B2:|
d>cd>e f>ga>f|d>c (3def e2 cA>c|B>FD>F (3Bcd c>B|c>de>c d2 (3ABc|
d2 (3cde f2 (3agf|d>cd>f e>cA>F|G2 D>E G>DB>G|A2 (3cBA B2:|

